icon-themes/sifr_svg/cmd/lc_basicshapes.block-arc.svg

<svg viewBox="0 0 24 24" xmlns="http://www.w3.org/2000/svg"><g fill="#555753"><path d="m12 7c-5.2467051 0-10 4.753269-10 10h5c0-2.623306 2.376647-5 5-5s5 2.376694 5 5h5c0-5.246731-4.753295-10-10-10z" opacity=".35"/><path d="m12 6c-5.8506739 0-11 5.1493-11 11v1h7v-1c0-2.019323 1.9806308-4 4-4 2.019369 0 4 1.980677 4 4v1h7v-1c0-5.8507-5.149326-11-11-11zm0 2c4.297789 0 8.19683 3.762269 8.775391 8h-2.986329c-.513063-2.763742-2.912718-5-5.789062-5s-5.2759989 2.236258-5.7890625 5h-2.9863281c.5785607-4.237731 4.4776014-8 8.7753906-8z"/></g></svg>

<svg xmlns="http://www.w3.org/2000/svg" viewBox="0 0 24 24">
  <path
     d="M 12,7 C 6.7532949,7 2,11.753269 2,17 h 5 c 0,-2.623306 2.376647,-5 5,-5 2.623353,0 5,2.376694 5,5 h 5 C 22,11.753269 17.246705,7 12,7 Z"
     style="fill:#555753;opacity:0.35"
     />
  <path
     style="fill:#555753"
     d="M 12,6 C 6.1493261,6 1,11.1493 1,17 v 1 h 7 v -1 c 0,-2.019323 1.9806308,-4 4,-4 2.019369,0 4,1.980677 4,4 v 1 h 7 V 17 C 23,11.1493 17.850674,6 12,6 Z m 0,2 c 4.297789,0 8.19683,3.762269 8.775391,8 H 17.789062 C 17.275999,13.236258 14.876344,11 12,11 9.123656,11 6.7240011,13.236258 6.2109375,16 H 3.2246094 C 3.8031701,11.762269 7.7022108,8 12,8 Z"
     />
</svg>
